X:6
T:Dans Les Caves
Z:midi2abc
M:3/8
L:1/16
R:Bourree
Q:1/4=100
K:C
"C"G2A2B2|"C"c2d2e2|"Dm"f2d2ef|"G"g2d2B2| \
"C"G2A2B2|"C"c2d2e2|"F"fed2c2|"G"d6:|
"F"f3gf2|"C"e2d2c2|"G"Bcd2B2|"C"c2d2e2| \
"F"f3gf2|"C"e2d2c2|"G"Bcd2B2|"C"c6:|
<end>
<start>
